X:816
T:Polska efter Karl Andersson,
T:(Sv. L. Sm. 22)
R:Polska
O:Loftahammar, Småland
S:efter Karl Andersson
B:Svenska Låtar Småland
N:Sv. L. Sm. 22
Z:Jonas Brunskog
M:3/4
L:1/16
K:F
|:F2A2 c2f2 a2f2|fefa gfed c4|B2BA B2c2 d2A2|BABd cBAB G2F2:|
|:A2a2 a2a2 b2a2|a2f2 agfg a2f2|A2a2 a2a2 b2a2|a2g2 agfg f4:|
(:musicend:)

(:music:)
